packages/web-icons/svgs/point_1.svg

<svg viewBox="0 0 48 40" xmlns="http://www.w3.org/2000/svg" class="ridi_icon"><path d="M28.4.4c-1.5 0-3 .2-4.4.5-1.4-.3-2.9-.5-4.4-.5C8.8.4 0 9.2 0 20s8.8 19.6 19.6 19.6c1.5 0 3-.2 4.4-.5 1.4.3 2.9.5 4.4.5C39.2 39.6 48 30.8 48 20S39.2.4 28.4.4zm.6 36.7c6-3.3 10.1-9.8 10.1-17.1 0-7.3-4-13.8-10.1-17.1 9.2.3 16.6 7.8 16.6 17.1S38.2 36.8 29 37.1zm-10 0C9.8 36.8 2.4 29.3 2.4 20S9.8 3.2 19 2.9h.6c.7 0 1.3.1 2 .1.8.1 1.7.3 2.4.5 7.3 2 12.7 8.6 12.7 16.5S31.3 34.6 24 36.5c-.8.2-1.6.4-2.4.5-.7.1-1.3.1-2 .1H19z"/><path d="M24.3 20.6c.6-.4 1.1-.9 1.4-1.6.3-.6.5-1.4.5-2.4 0-.9-.2-1.7-.5-2.3-.3-.6-.7-1.1-1.3-1.5-.6-.4-1.3-.7-2-.9-.8-.2-1.7-.3-2.7-.3h-5.5v17.1h3v-7.1h2.3c.9 0 1.8-.1 2.6-.3.9 0 1.6-.3 2.2-.7zm-3.4-1.5l-3.5.1v-4.9h2.2c.5 0 .9 0 1.4.1.5.1.8.2 1.2.3.3.2.6.4.8.7.2.3.3.7.3 1.2s-.1.9-.3 1.3c-.2.3-.5.6-.9.8-.4.2-.8.3-1.2.4z"/></svg>

<?xml version="1.0" encoding="UTF-8"?>
<svg width="48px" height="40px" viewBox="0 0 48 40" version="1.1" xmlns="http://www.w3.org/2000/svg">
  <!-- Generator: Sketch 41.2 (35397) - http://www.bohemiancoding.com/sketch -->
  <title>point_1</title>
  <desc>Created with Sketch.</desc>
  <defs></defs>
  <g id="Page-1" stroke="none" stroke-width="1" fill="none" fill-rule="evenodd">
    <g id="point_1" fill="#444444">
      <g id="레이어_1">
        <path d="M28.4,0.4 C26.9,0.4 25.4,0.6 24,0.9 C22.6,0.6 21.1,0.4 19.6,0.4 C8.8,0.4 0,9.2 0,20 C0,30.8 8.8,39.6 19.6,39.6 C21.1,39.6 22.6,39.4 24,39.1 C25.4,39.4 26.9,39.6 28.4,39.6 C39.2,39.6 48,30.8 48,20 C48,9.2 39.2,0.4 28.4,0.4 Z M29,37.1 C35,33.8 39.1,27.3 39.1,20 C39.1,12.7 35.1,6.2 29,2.9 C38.2,3.2 45.6,10.7 45.6,20 C45.6,29.3 38.2,36.8 29,37.1 Z M19,37.1 C9.8,36.8 2.4,29.3 2.4,20 C2.4,10.7 9.8,3.2 19,2.9 L19.6,2.9 C20.3,2.9 20.9,3 21.6,3 C22.4,3.1 23.3,3.3 24,3.5 C31.3,5.5 36.7,12.1 36.7,20 C36.7,27.9 31.3,34.6 24,36.5 C23.2,36.7 22.4,36.9 21.6,37 C20.9,37.1 20.3,37.1 19.6,37.1 L19,37.1 L19,37.1 Z" id="Shape"></path>
        <path d="M24.3,20.6 C24.9,20.2 25.4,19.7 25.7,19 C26,18.4 26.2,17.6 26.2,16.6 C26.2,15.7 26,14.9 25.7,14.3 C25.4,13.7 25,13.2 24.4,12.8 C23.8,12.4 23.1,12.1 22.4,11.9 C21.6,11.7 20.7,11.6 19.7,11.6 L14.2,11.6 L14.2,28.7 L17.2,28.7 L17.2,21.6 L19.5,21.6 C20.4,21.6 21.3,21.5 22.1,21.3 C23,21.3 23.7,21 24.3,20.6 L24.3,20.6 Z M20.9,19.1 L17.4,19.2 L17.4,14.3 L19.6,14.3 C20.1,14.3 20.5,14.3 21,14.4 C21.5,14.5 21.8,14.6 22.2,14.7 C22.5,14.9 22.8,15.1 23,15.4 C23.2,15.7 23.3,16.1 23.3,16.6 C23.3,17.1 23.2,17.5 23,17.9 C22.8,18.2 22.5,18.5 22.1,18.7 C21.7,18.9 21.3,19 20.9,19.1 L20.9,19.1 Z" id="Shape"></path>
      </g>
    </g>
  </g>
</svg>
